SF_Symbols/arrow.uturn.forward.svg

<?xml version="1.0" encoding="UTF-8"?>
<svg xmlns="http://www.w3.org/2000/svg" xmlns:xlink="http://www.w3.org/1999/xlink" width="24" height="24" viewBox="0 0 24 24" version="1.1">
<g id="surface1">
<path style=" stroke:none;fill-rule:nonzero;fill:rgb(100%,100%,100%);fill-opacity:1;" d="M 0.925781 15.679688 C 0.925781 17.179688 1.242188 18.488281 1.875 19.605469 C 2.515625 20.730469 3.445312 21.601562 4.664062 22.21875 C 5.882812 22.84375 7.367188 23.15625 9.117188 23.15625 L 11.824219 23.15625 C 12.144531 23.15625 12.402344 23.054688 12.597656 22.851562 C 12.792969 22.648438 12.890625 22.402344 12.890625 22.113281 C 12.890625 21.824219 12.792969 21.578125 12.597656 21.375 C 12.402344 21.171875 12.144531 21.070312 11.824219 21.070312 L 9.128906 21.070312 C 7.792969 21.070312 6.671875 20.828125 5.765625 20.34375 C 4.859375 19.867188 4.171875 19.214844 3.703125 18.386719 C 3.242188 17.558594 3.011719 16.617188 3.011719 15.5625 C 3.011719 14.515625 3.242188 13.589844 3.703125 12.785156 C 4.171875 11.972656 4.859375 11.339844 5.765625 10.886719 C 6.671875 10.433594 7.792969 10.207031 9.128906 10.207031 L 17.167969 10.207031 L 20.8125 10.042969 L 20.601562 9.503906 L 17.695312 11.988281 L 14.320312 15.28125 C 14.226562 15.375 14.15625 15.480469 14.109375 15.597656 C 14.0625 15.714844 14.039062 15.847656 14.039062 15.996094 C 14.039062 16.300781 14.132812 16.550781 14.320312 16.746094 C 14.507812 16.933594 14.757812 17.027344 15.070312 17.027344 C 15.367188 17.027344 15.621094 16.917969 15.832031 16.699219 L 22.722656 9.9375 C 22.839844 9.828125 22.925781 9.707031 22.980469 9.574219 C 23.042969 9.441406 23.074219 9.304688 23.074219 9.164062 C 23.074219 9.015625 23.042969 8.875 22.980469 8.742188 C 22.925781 8.609375 22.839844 8.488281 22.722656 8.378906 L 15.832031 1.617188 C 15.621094 1.398438 15.367188 1.289062 15.070312 1.289062 C 14.757812 1.289062 14.507812 1.386719 14.320312 1.582031 C 14.132812 1.769531 14.039062 2.015625 14.039062 2.320312 C 14.039062 2.46875 14.0625 2.601562 14.109375 2.71875 C 14.15625 2.835938 14.226562 2.941406 14.320312 3.035156 L 17.695312 6.339844 L 20.601562 8.8125 L 20.8125 8.273438 L 17.167969 8.109375 L 9.304688 8.109375 C 7.523438 8.109375 6.007812 8.429688 4.757812 9.070312 C 3.507812 9.710938 2.554688 10.601562 1.898438 11.742188 C 1.25 12.875 0.925781 14.1875 0.925781 15.679688 Z M 0.925781 15.679688 "/>
</g>
</svg>

<svg xmlns="http://www.w3.org/2000/svg" width="24" height="24"><path style="stroke:none;fill-rule:nonzero;fill:#fff;fill-opacity:1" d="M.926 15.68c0 1.5.316 2.808.949 3.925.64 1.125 1.57 1.997 2.79 2.614 1.218.625 2.702.937 4.452.937h2.707c.32 0 .578-.101.774-.304.195-.204.293-.45.293-.739s-.098-.535-.293-.738c-.196-.203-.453-.305-.774-.305H9.13c-1.336 0-2.457-.242-3.363-.726-.907-.477-1.594-1.13-2.063-1.957-.46-.828-.691-1.77-.691-2.825 0-1.046.23-1.972.691-2.777.469-.812 1.156-1.445 2.063-1.898.906-.453 2.027-.68 3.363-.68h8.039l3.645-.164-.211-.54-2.907 2.485-3.375 3.293c-.09.09-.16.2-.21.317-.047.117-.07.25-.07.398 0 .305.093.555.28.75.188.188.438.281.75.281.297 0 .551-.109.762-.328l6.89-6.762c.118-.109.204-.23.258-.363a.97.97 0 0 0 0-.832 1.03 1.03 0 0 0-.257-.363l-6.891-6.762a1.022 1.022 0 0 0-.762-.328c-.312 0-.562.098-.75.293-.187.188-.28.434-.28.738 0 .149.023.282.07.399.05.117.12.226.21.316l3.375 3.305 2.907 2.473.21-.54-3.644-.164H9.305c-1.782 0-3.297.32-4.547.961-1.25.64-2.203 1.532-2.86 2.672-.648 1.133-.972 2.445-.972 3.938Zm0 0"/></svg>
